packages/assets/static/images/icons/bold/vimeo-logo--bold.svg

<svg width="24" height="24" viewBox="0 0 24 24" xmlns="http://www.w3.org/2000/svg">
<path d="M10.8409 21.0495C10.6241 21.0495 10.4126 21.0312 10.2056 20.9945C8.58943 20.7095 7.42361 19.3989 6.74156 17.0985C6.74068 17.0949 6.7398 17.0921 6.73892 17.0894L4.87254 10.5832C4.71304 10.0526 4.56412 9.87661 4.52006 9.83262C4.44956 9.83995 4.16406 9.90411 3.54457 10.4118C3.33044 10.5951 3.05375 10.6868 2.77176 10.6611C2.18312 10.6089 1.89585 10.1314 1.61828 9.6704C1.44468 9.38171 1.24641 9.02794 1.07193 8.71725C0.968832 8.53212 0.843702 8.30942 0.781137 8.20494C0.776731 8.19944 0.772325 8.19394 0.767919 8.18844C0.398697 7.71828 0.466549 7.02542 0.918604 6.64141C1.14331 6.45078 1.40943 6.21433 1.69053 5.96413C3.83096 4.06059 6.76095 1.45502 9.17807 2.36509C10.4118 2.82975 11.2092 4.1 11.5485 6.14009L12.8483 12.0872C13.0509 11.749 13.2774 11.3549 13.4959 10.9416C14.2987 9.4202 14.4503 8.67143 14.4714 8.36991C14.3155 8.37541 14.0352 8.4139 13.5753 8.56878C13.2007 8.69434 12.7901 8.59353 12.5099 8.30575C12.2297 8.01889 12.1248 7.59364 12.2394 7.2023C12.9602 4.73237 14.4212 2.9718 16.3537 2.24411C18.1425 1.52833 20.1446 1.69239 21.4576 2.66203C22.5106 3.44013 23.0675 4.67738 23.0279 6.14926C23.0904 9.49352 20.9852 12.3337 19.2933 14.6176L19.2193 14.7166C18.6906 15.4635 17.2754 17.3441 15.4205 18.9113C13.7365 20.3346 12.1988 21.0522 10.8409 21.0522V21.0495ZM8.76391 16.4552C9.19129 17.894 9.79491 18.6923 10.558 18.8261C11.4154 18.9773 12.6685 18.3999 14.0872 17.2012C15.2486 16.2196 16.5334 14.7991 17.523 13.3996C17.5274 13.3932 17.5327 13.3868 17.5371 13.3803L17.6182 13.2713C19.1902 11.1505 20.972 8.74658 20.913 6.16667C20.913 6.14559 20.913 6.12451 20.913 6.10252C20.9377 5.34825 20.7156 4.80844 20.2327 4.45101C19.5031 3.91212 18.2174 3.84796 17.1062 4.29612C17.0983 4.29887 17.0904 4.30254 17.0824 4.30529C16.0902 4.67647 15.4126 5.43165 14.9579 6.20425C15.4945 6.29131 15.9131 6.5461 16.2109 6.96768C17.1 8.22877 16.2215 10.2964 15.4839 11.7407C14.7561 13.165 13.9198 14.3958 13.8846 14.448C13.8123 14.5544 13.7224 14.646 13.6193 14.7193C12.954 15.1931 12.4174 15.1409 12.0843 15.0135C11.3493 14.7331 11.1476 13.9696 11.0392 13.5591C11.0233 13.4995 10.9995 13.4106 10.9881 13.3767C10.9572 13.307 10.9334 13.2346 10.9167 13.1595L9.48121 6.59467C9.4768 6.57451 9.47328 6.55526 9.46975 6.5351C9.27677 5.35008 8.91724 4.60223 8.45902 4.42901C8.18761 4.32637 7.52671 4.28696 6.14587 5.16587C5.06464 5.85507 3.95698 6.83937 3.06696 7.63122C3.0326 7.66146 2.99823 7.69171 2.96475 7.72195C3.0185 7.81818 3.08106 7.92908 3.14627 8.04272C3.74284 7.70637 4.43723 7.49466 5.15012 7.72378C6.35031 8.11054 6.76007 9.4816 6.89489 9.93252C6.89577 9.93618 6.89753 9.94076 6.89841 9.94443L8.76479 16.4515L8.76391 16.4552ZM10.9898 13.3858C10.9898 13.3858 10.9907 13.3877 10.9916 13.3886C10.9916 13.3877 10.9916 13.3868 10.9898 13.3858ZM2.07474 8.84098C2.07474 8.84098 2.07474 8.84098 2.07474 8.8419C2.07474 8.8419 2.07474 8.8419 2.07474 8.84098ZM2.0765 8.83915C2.0765 8.83915 2.0765 8.83915 2.07562 8.84006C2.07562 8.84006 2.07562 8.84006 2.0765 8.83915Z"/>
</svg>

<svg viewBox="0 0 24 24" xmlns="http://www.w3.org/2000/svg" aria-hidden="true" fill="currentColor"><path d="M10.84 21.05a3.6 3.6 0 0 1-.634-.056C8.589 20.71 7.424 19.4 6.742 17.1l-.003-.01-1.866-6.506c-.16-.53-.309-.706-.353-.75-.07.007-.356.071-.975.579-.215.183-.491.275-.773.25-.589-.053-.876-.53-1.154-.992-.173-.288-.372-.642-.546-.953a25 25 0 0 0-.29-.512l-.014-.017a1.13 1.13 0 0 1 .15-1.547c.225-.19.491-.427.773-.677 2.14-1.903 5.07-4.509 7.487-3.599 1.234.465 2.031 1.735 2.37 3.775l1.3 5.947c.203-.338.43-.732.648-1.145.803-1.522.954-2.27.975-2.572-.155.005-.436.044-.896.199a1.03 1.03 0 0 1-1.065-.263 1.13 1.13 0 0 1-.27-1.104c.72-2.47 2.181-4.23 4.114-4.958 1.788-.716 3.79-.552 5.104.418 1.053.778 1.61 2.015 1.57 3.487.062 3.345-2.043 6.185-3.735 8.469l-.074.099c-.528.746-1.944 2.627-3.799 4.194-1.684 1.424-3.221 2.141-4.58 2.141zm-2.076-4.595c.427 1.439 1.03 2.237 1.794 2.371.857.151 2.11-.426 3.53-1.625 1.16-.981 2.445-2.402 3.435-3.801l.014-.02.081-.109c1.572-2.12 3.354-4.524 3.295-7.104v-.064c.025-.755-.197-1.295-.68-1.652-.73-.539-2.016-.603-3.127-.155l-.024.01c-.992.37-1.67 1.126-2.124 1.898q.806.13 1.253.764c.889 1.26.01 3.328-.727 4.773-.728 1.424-1.564 2.655-1.6 2.707a1.1 1.1 0 0 1-.265.271c-.665.474-1.202.422-1.535.295-.735-.28-.936-1.044-1.045-1.455l-.05-.182a1 1 0 0 1-.072-.218L9.48 6.595l-.011-.06C9.277 5.35 8.917 4.602 8.459 4.43c-.271-.103-.932-.142-2.313.737-1.081.69-2.189 1.673-3.079 2.465l-.102.09.181.322c.597-.337 1.291-.548 2.004-.32 1.2.388 1.61 1.759 1.745 2.21l.003.011 1.867 6.507zm2.226-3.07q0 .001.002.004 0-.002-.002-.003M2.076 8.84v.001"/></svg>
